topics/special-relativity/Latex/images/svg/Tikz_Lights_angle_with_particle_in_its_proper_frame.svg

<?xml version="1.0" encoding="UTF-8"?>
<svg xmlns="http://www.w3.org/2000/svg" xmlns:xlink="http://www.w3.org/1999/xlink" width="59.667pt" height="25.467pt" viewBox="0 0 59.667 25.467" version="1.1">
<defs>
<g>
<symbol overflow="visible" id="glyph0-0">
<path style="stroke:none;" d=""/>
</symbol>
<symbol overflow="visible" id="glyph0-1">
<path style="stroke:none;" d="M 3.953125 -3.78125 C 3.78125 -3.78125 3.65625 -3.78125 3.515625 -3.65625 C 3.34375 -3.5 3.328125 -3.328125 3.328125 -3.265625 C 3.328125 -3.015625 3.515625 -2.90625 3.703125 -2.90625 C 3.984375 -2.90625 4.25 -3.15625 4.25 -3.546875 C 4.25 -4.03125 3.78125 -4.40625 3.078125 -4.40625 C 1.734375 -4.40625 0.40625 -2.984375 0.40625 -1.578125 C 0.40625 -0.671875 0.984375 0.109375 2.03125 0.109375 C 3.453125 0.109375 4.28125 -0.953125 4.28125 -1.0625 C 4.28125 -1.125 4.234375 -1.203125 4.171875 -1.203125 C 4.109375 -1.203125 4.09375 -1.171875 4.03125 -1.09375 C 3.25 -0.109375 2.15625 -0.109375 2.046875 -0.109375 C 1.421875 -0.109375 1.140625 -0.59375 1.140625 -1.203125 C 1.140625 -1.609375 1.34375 -2.578125 1.6875 -3.1875 C 2 -3.765625 2.546875 -4.1875 3.09375 -4.1875 C 3.421875 -4.1875 3.8125 -4.0625 3.953125 -3.78125 Z M 3.953125 -3.78125 "/>
</symbol>
<symbol overflow="visible" id="glyph1-0">
<path style="stroke:none;" d=""/>
</symbol>
<symbol overflow="visible" id="glyph1-1">
<path style="stroke:none;" d="M 3.59375 -2.21875 C 3.59375 -2.984375 3.5 -3.546875 3.1875 -4.03125 C 2.96875 -4.34375 2.53125 -4.625 1.984375 -4.625 C 0.359375 -4.625 0.359375 -2.71875 0.359375 -2.21875 C 0.359375 -1.71875 0.359375 0.140625 1.984375 0.140625 C 3.59375 0.140625 3.59375 -1.71875 3.59375 -2.21875 Z M 1.984375 -0.0625 C 1.65625 -0.0625 1.234375 -0.25 1.09375 -0.8125 C 1 -1.21875 1 -1.796875 1 -2.3125 C 1 -2.828125 1 -3.359375 1.09375 -3.734375 C 1.25 -4.28125 1.6875 -4.4375 1.984375 -4.4375 C 2.359375 -4.4375 2.71875 -4.203125 2.84375 -3.796875 C 2.953125 -3.421875 2.96875 -2.921875 2.96875 -2.3125 C 2.96875 -1.796875 2.96875 -1.28125 2.875 -0.84375 C 2.734375 -0.203125 2.265625 -0.0625 1.984375 -0.0625 Z M 1.984375 -0.0625 "/>
</symbol>
</g>
</defs>
<g id="surface1">
<path style=" stroke:none;fill-rule:nonzero;fill:rgb(100%,89.411926%,78.431702%);fill-opacity:1;" d="M 0 25.46875 L 59.667969 25.46875 L 59.667969 0 L 0 0 Z M 0 25.46875 "/>
<path style="fill:none;stroke-width:1.59404;stroke-linecap:butt;stroke-linejoin:miter;stroke:rgb(100%,0%,0%);stroke-opacity:1;stroke-miterlimit:10;" d="M -0.000875 0.000875 L 51.7335 -11.006937 " transform="matrix(1,0,0,-1,5.579,5.579)"/>
<path style="fill:none;stroke-width:1.59404;stroke-linecap:round;stroke-linejoin:round;stroke:rgb(100%,0%,0%);stroke-opacity:1;stroke-miterlimit:10;" d="M -3.506304 4.552189 C -2.865291 1.821064 -1.436717 0.531517 -0.00131902 -0.0017593 C -1.438256 -0.531149 -2.865108 -1.8212 -3.50666 -4.54965 " transform="matrix(0.97809,0.20811,0.20811,-0.97809,58.0915,16.75246)"/>
<g style="fill:rgb(100%,0%,0%);fill-opacity:1;">
  <use xlink:href="#glyph0-1" x="27.834" y="19.656"/>
</g>
<path style="fill:none;stroke-width:0.398;stroke-linecap:butt;stroke-linejoin:miter;stroke:rgb(100%,0%,0%);stroke-opacity:1;stroke-miterlimit:10;" d="M 0.0019375 0.00021875 L 4.310531 0.00021875 " transform="matrix(1,0,0,-1,27.834,21.051)"/>
<g style="fill:rgb(100%,0%,0%);fill-opacity:1;">
  <use xlink:href="#glyph1-1" x="32.146" y="22.146"/>
</g>
<path style=" stroke:none;fill-rule:nonzero;fill:rgb(0%,0%,0%);fill-opacity:1;" d="M 11.15625 5.578125 C 11.15625 2.496094 8.660156 0 5.578125 0 C 2.496094 0 0 2.496094 0 5.578125 C 0 8.660156 2.496094 11.15625 5.578125 11.15625 C 8.660156 11.15625 11.15625 8.660156 11.15625 5.578125 Z M 11.15625 5.578125 "/>
</g>
</svg>

<svg xmlns="http://www.w3.org/2000/svg" xmlns:xlink="http://www.w3.org/1999/xlink" width="79.56" height="33.96" viewBox="0 0 59.67 25.47"><defs><symbol id="a" overflow="visible"><path d="M3.95-3.78c-.17 0-.3 0-.43.12a.5.5 0 0 0-.2.4c0 .24.2.35.38.35.28 0 .55-.25.55-.64 0-.48-.47-.86-1.17-.86C1.73-4.4.4-2.98.4-1.58.4-.68.98.11 2.03.11 3.45.1 4.28-.95 4.28-1.06c0-.06-.05-.14-.1-.14-.07 0-.09.03-.15.1-.78 1-1.87 1-1.98 1-.63 0-.9-.5-.9-1.1 0-.4.2-1.38.54-1.99.31-.58.86-1 1.4-1 .33 0 .72.13.86.4m0 0" style="stroke:none"/></symbol><symbol id="b" overflow="visible"><path d="M3.6-2.22c0-.76-.1-1.33-.41-1.81-.22-.31-.66-.6-1.2-.6C.35-4.62.35-2.71.35-2.21S.36.14 1.98.14C3.6.14 3.6-1.72 3.6-2.22M1.97-.06c-.32 0-.75-.19-.89-.75C1-1.21 1-1.8 1-2.31c0-.52 0-1.05.1-1.42.15-.55.59-.7.88-.7a.9.9 0 0 1 .86.63q.15.57.13 1.49c0 .51 0 1.03-.1 1.47-.14.64-.6.78-.89.78m0 0" style="stroke:none"/></symbol></defs><path d="M0 25.47h59.67V0H0Zm0 0" style="stroke:none;fill-rule:nonzero;fill:#ffe4c8;fill-opacity:1"/><path d="m0 0 51.73-11" style="fill:none;stroke-width:1.59404;stroke-linecap:butt;stroke-linejoin:miter;stroke:red;stroke-opacity:1;stroke-miterlimit:10" transform="matrix(1 0 0 -1 5.58 5.58)"/><path d="M-3.5 4.55C-2.88 1.82-1.45.53 0 0c-1.44-.53-2.87-1.82-3.5-4.55" style="fill:none;stroke-width:1.59404;stroke-linecap:round;stroke-linejoin:round;stroke:red;stroke-opacity:1;stroke-miterlimit:10" transform="rotate(192.01 29.93 5.32)scale(-.99998 .99998)"/><use xlink:href="#a" x="27.83" y="19.66" style="fill:red;fill-opacity:1"/><path d="M0 0h4.31" style="fill:none;stroke-width:.398;stroke-linecap:butt;stroke-linejoin:miter;stroke:red;stroke-opacity:1;stroke-miterlimit:10" transform="matrix(1 0 0 -1 27.83 21.05)"/><use xlink:href="#b" x="32.15" y="22.15" style="fill:red;fill-opacity:1"/><path d="M11.16 5.58A5.58 5.58 0 1 0 0 5.58a5.58 5.58 0 0 0 11.16 0m0 0" style="stroke:none;fill-rule:nonzero;fill:#000;fill-opacity:1"/></svg>
